X: 1810
T: Policeman's Holiday
B: australian traditional tunes wiki
M:4/4
R: Schottische
Q: 1/4=100
K:Dmaj
V:1 
|:"D"D2A2"A7"A>G F>E|"D"D2A2A2B>c|d2A2A>B A>G|A2D2"A7"E3z|
"D"D2A2A>G F>E|D2A2d2c>d|"E7"e2e2e>f e>d|"A7"c2A2 (3ABA (3GFE:|
|:"D"D2A2"A7"A>G F>E|"D"D2A2A2B>c|d2A2A>B A>G|"E7"F2D2"A"E4|
"Em"B>A B>c "D"d>c d>e|f>e d>ef4|a>f d>e f>e f>a|z2"A7"c2"D"d2z2:|
% abcbook-tune_id 6342d53a308ee36670c5e9e0


% abcbook-boost 0
% abcbook-tablature 
% abcbook-transpose 
% abcbook-lastupdated 1665324385301
% abcbook-soundfonts 
% abcbook-repeats 1
% NFF Book 2022
% Bush Traditions recording played by Ray Mulligan

